static/assets/img/icons/theme/files/media-folder.svg

<svg height="24" viewBox="0 0 24 24" width="24" xmlns="http://www.w3.org/2000/svg"><g fill="none" fill-rule="evenodd"><path d="m0 0h24v24h-24z" opacity="0"/><g fill="#000"><path d="m3.5 21h17c.8284271 0 1.5-.6715729 1.5-1.5v-11c0-.82842712-.6715729-1.5-1.5-1.5h-10.5l-2.56066017-2.56066017c-.28130457-.28130457-.66283544-.43933983-1.06066017-.43933983h-2.87867966c-.82842712 0-1.5.67157288-1.5 1.5v14c0 .8284271.67157288 1.5 1.5 1.5z" opacity=".3"/><path d="m10.782158 17.5100514 4.4034508-3.0100066c.2279718-.1558316.286453-.4669657.1306214-.6949375-.0347715-.0508685-.078646-.0948718-.1294124-.1297924l-4.4034508-3.0289876c-.2275139-.1564993-.5388181-.0989306-.6953174.1285834-.0573474.0833699-.0880496.1821777-.0880496.283367v6.0389943c0 .2761423.2238576.5.5.5.1006894 0 .199033-.0304.282158-.0872206z"/></g></g></svg>

<svg width="24px" height="24px" viewBox="0 0 24 24" version="1.1" xmlns="http://www.w3.org/2000/svg" xmlns:xlink="http://www.w3.org/1999/xlink">
    <title>Icon For Media-folder</title>
    <g stroke="none" stroke-width="1" fill="none" fill-rule="evenodd">
        <rect opacity="0" x="0" y="0" width="24" height="24"></rect>
        <path d="M3.5,21 L20.5,21 C21.3284271,21 22,20.3284271 22,19.5 L22,8.5 C22,7.67157288 21.3284271,7 20.5,7 L10,7 L7.43933983,4.43933983 C7.15803526,4.15803526 6.77650439,4 6.37867966,4 L3.5,4 C2.67157288,4 2,4.67157288 2,5.5 L2,19.5 C2,20.3284271 2.67157288,21 3.5,21 Z" fill="#000000" opacity="0.3"></path>
        <path d="M10.782158,17.5100514 L15.1856088,14.5000448 C15.4135806,14.3442132 15.4720618,14.0330791 15.3162302,13.8051073 C15.2814587,13.7542388 15.2375842,13.7102355 15.1868178,13.6753149 L10.783367,10.6463273 C10.5558531,10.489828 10.2445489,10.5473967 10.0880496,10.7749107 C10.0307022,10.8582806 10,10.9570884 10,11.0582777 L10,17.097272 C10,17.3734143 10.2238576,17.597272 10.5,17.597272 C10.6006894,17.597272 10.699033,17.566872 10.782158,17.5100514 Z" fill="#000000"></path>
    </g>
</svg>
